dist/images/quick-links-section/News in Belgium icon.svg

<svg width="42" height="39" viewBox="0 0 42 39" fill="none" xmlns="http://www.w3.org/2000/svg">
<g clip-path="url(#clip0_133_217)">
<path d="M39.8791 0H9.15157C8.58808 0.00208857 8.04843 0.227205 7.65101 0.625964C7.25358 1.02472 7.03083 1.56456 7.03161 2.12706V5.3566H2.11996C1.55647 5.35868 1.01682 5.5838 0.619394 5.98256C0.221966 6.38132 -0.000786602 6.92116 2.08724e-06 7.48365V34.8553C-6.9244e-05 35.9456 0.430544 36.992 1.19841 37.7674C1.96628 38.5427 3.00946 38.9846 4.10161 38.997H25.8939C26.0579 38.997 26.2152 38.932 26.3312 38.8162C26.4471 38.7005 26.5123 38.5434 26.5123 38.3797C26.5123 38.216 26.4471 38.059 26.3312 37.9432C26.2152 37.8275 26.0579 37.7624 25.8939 37.7624H7.07014C7.83531 36.9866 8.26366 35.9411 8.26249 34.8524V20.4196C8.26249 20.2566 8.19765 20.1004 8.08223 19.9851C7.96682 19.8699 7.81028 19.8052 7.64705 19.8052C7.48383 19.8052 7.32729 19.8699 7.21187 19.9851C7.09645 20.1004 7.03161 20.2566 7.03161 20.4196V34.8563C7.03322 35.6232 6.73112 36.3596 6.19117 36.905C5.65123 37.4505 4.91719 37.7608 4.14903 37.7683H4.13125C3.36051 37.7655 2.62237 37.4576 2.07867 36.9123C1.53497 36.367 1.23009 35.6287 1.23088 34.8593V7.48365C1.23023 7.36669 1.25275 7.25075 1.29713 7.1425C1.34152 7.03426 1.40691 6.93584 1.48953 6.8529C1.57216 6.76997 1.67039 6.70415 1.77858 6.65924C1.88677 6.61433 2.00278 6.59121 2.11996 6.59122H7.03161V18.114C7.03161 18.2769 7.09645 18.4332 7.21187 18.5484C7.32729 18.6636 7.48383 18.7284 7.64705 18.7284C7.81028 18.7284 7.96682 18.6636 8.08223 18.5484C8.19765 18.4332 8.26249 18.2769 8.26249 18.114V2.12706C8.26184 2.01009 8.28436 1.89416 8.32875 1.78591C8.37313 1.67766 8.43852 1.57924 8.52114 1.49631C8.60377 1.41337 8.702 1.34756 8.81019 1.30265C8.91838 1.25774 9.0344 1.23462 9.15157 1.23462H39.8791C39.9962 1.23462 40.1123 1.25774 40.2204 1.30265C40.3286 1.34756 40.4269 1.41337 40.5095 1.49631C40.5921 1.57924 40.6575 1.67766 40.7019 1.78591C40.7463 1.89416 40.7688 2.01009 40.7681 2.12706V34.8553C40.77 35.6252 40.4657 36.3644 39.9221 36.9105C39.3785 37.4567 38.64 37.7652 37.8688 37.7683H28.1877C28.0237 37.7683 27.8664 37.8334 27.7504 37.9491C27.6344 38.0649 27.5693 38.2219 27.5693 38.3856C27.5693 38.5494 27.6344 38.7064 27.7504 38.8222C27.8664 38.9379 28.0237 39.003 28.1877 39.003H37.8688C38.9661 38.9983 40.0168 38.5598 40.7911 37.7836C41.5653 37.0074 42 35.9566 42 34.8613V2.12706C42.0008 1.56439 41.7779 1.0244 41.3803 0.625617C40.9826 0.226829 40.4427 0.00182798 39.8791 0Z" fill="#FCF9F7"/>
<path d="M13.4635 24.6332H21.9453C22.3332 24.6327 22.705 24.4787 22.9792 24.2049C23.2535 23.9311 23.4078 23.56 23.4083 23.1728V14.706C23.4078 14.3188 23.2535 13.9476 22.9792 13.6739C22.705 13.4001 22.3332 13.2461 21.9453 13.2455H13.4635C13.0756 13.2461 12.7038 13.4001 12.4296 13.6739C12.1553 13.9476 12.001 14.3188 12.0005 14.706V23.1728C12.001 23.56 12.1553 23.9311 12.4296 24.2049C12.7038 24.4787 13.0756 24.6327 13.4635 24.6332ZM13.2373 14.706C13.2373 14.6763 13.2431 14.647 13.2545 14.6196C13.2659 14.5922 13.2825 14.5673 13.3035 14.5463C13.3245 14.5253 13.3495 14.5087 13.3769 14.4974C13.4044 14.486 13.4338 14.4802 13.4635 14.4802H21.9453C22.0052 14.4804 22.0626 14.5043 22.105 14.5466C22.1474 14.5889 22.1713 14.6462 22.1715 14.706V23.1728C22.1713 23.2326 22.1474 23.2899 22.105 23.3322C22.0626 23.3745 22.0052 23.3984 21.9453 23.3986H13.4635C13.4036 23.3984 13.3462 23.3745 13.3038 23.3322C13.2615 23.2899 13.2376 23.2326 13.2373 23.1728V14.706Z" fill="#FCF9F7"/>
<path d="M25.5234 14.4792H37.0014C37.1654 14.4792 37.3227 14.4142 37.4387 14.2984C37.5547 14.1826 37.6198 14.0256 37.6198 13.8619C37.6198 13.6981 37.5547 13.5411 37.4387 13.4254C37.3227 13.3096 37.1654 13.2446 37.0014 13.2446H25.5234C25.3594 13.2446 25.2021 13.3096 25.0862 13.4254C24.9702 13.5411 24.905 13.6981 24.905 13.8619C24.905 14.0256 24.9702 14.1826 25.0862 14.2984C25.2021 14.4142 25.3594 14.4792 25.5234 14.4792Z" fill="#FCF9F7"/>
<path d="M25.5234 19.5557H37.0014C37.1654 19.5557 37.3227 19.4907 37.4387 19.3749C37.5547 19.2591 37.6198 19.1021 37.6198 18.9384C37.6198 18.7747 37.5547 18.6177 37.4387 18.5019C37.3227 18.3861 37.1654 18.3211 37.0014 18.3211H25.5234C25.3594 18.3211 25.2021 18.3861 25.0862 18.5019C24.9702 18.6177 24.905 18.7747 24.905 18.9384C24.905 19.1021 24.9702 19.2591 25.0862 19.3749C25.2021 19.4907 25.3594 19.5557 25.5234 19.5557Z" fill="#FCF9F7"/>
<path d="M25.5234 24.6333H37.0014C37.1654 24.6333 37.3227 24.5682 37.4387 24.4525C37.5547 24.3367 37.6198 24.1797 37.6198 24.0159C37.6198 23.8522 37.5547 23.6952 37.4387 23.5794C37.3227 23.4637 37.1654 23.3986 37.0014 23.3986H25.5234C25.3594 23.3986 25.2021 23.4637 25.0862 23.5794C24.9702 23.6952 24.905 23.8522 24.905 24.0159C24.905 24.1797 24.9702 24.3367 25.0862 24.4525C25.2021 24.5682 25.3594 24.6333 25.5234 24.6333Z" fill="#FCF9F7"/>
<path d="M12.4856 29.7098H37.0014C37.1654 29.7098 37.3227 29.6447 37.4387 29.529C37.5546 29.4132 37.6198 29.2562 37.6198 29.0925C37.6198 28.9287 37.5546 28.7717 37.4387 28.6559C37.3227 28.5402 37.1654 28.4751 37.0014 28.4751H12.4856C12.3216 28.4751 12.1643 28.5402 12.0483 28.6559C11.9323 28.7717 11.8672 28.9287 11.8672 29.0925C11.8672 29.2562 11.9323 29.4132 12.0483 29.529C12.1643 29.6447 12.3216 29.7098 12.4856 29.7098Z" fill="#FCF9F7"/>
<path d="M12.4856 34.7863H37.0014C37.1654 34.7863 37.3227 34.7213 37.4387 34.6055C37.5546 34.4897 37.6198 34.3327 37.6198 34.169C37.6198 34.0053 37.5546 33.8483 37.4387 33.7325C37.3227 33.6167 37.1654 33.5517 37.0014 33.5517H12.4856C12.3216 33.5517 12.1643 33.6167 12.0483 33.7325C11.9323 33.8483 11.8672 34.0053 11.8672 34.169C11.8672 34.3327 11.9323 34.4897 12.0483 34.6055C12.1643 34.7213 12.3216 34.7863 12.4856 34.7863Z" fill="#FCF9F7"/>
<path d="M12.0313 10.0831V3.56284C12.0302 3.49871 12.0477 3.43563 12.0817 3.38121C12.1157 3.3268 12.1648 3.28336 12.2229 3.25616C12.3658 3.18214 12.5253 3.14582 12.6862 3.15064C12.8799 3.13857 13.0728 3.18422 13.2404 3.2818C13.4207 3.43661 13.5649 3.62875 13.6632 3.84487L15.6064 7.59212V3.54903C15.6051 3.48551 15.6226 3.42301 15.6567 3.36935C15.6907 3.31568 15.7399 3.27323 15.798 3.24728C15.9434 3.18092 16.1014 3.14658 16.2613 3.14658C16.4212 3.14658 16.5792 3.18092 16.7246 3.24728C16.7827 3.27323 16.8319 3.31568 16.866 3.36935C16.9001 3.42301 16.9176 3.48551 16.9163 3.54903V10.0831C16.9154 10.1469 16.8964 10.2092 16.8614 10.2626C16.8264 10.316 16.7769 10.3584 16.7187 10.3848C16.5782 10.461 16.4202 10.4991 16.2603 10.4953C16.1079 10.5069 15.9554 10.4741 15.8213 10.4009C15.6872 10.3278 15.5772 10.2174 15.5046 10.0831L13.3402 6.03997V10.0831C13.3395 10.1469 13.3205 10.2092 13.2855 10.2627C13.2505 10.3161 13.2009 10.3585 13.1426 10.3848C13 10.4576 12.842 10.4956 12.6818 10.4956C12.5216 10.4956 12.3636 10.4576 12.221 10.3848C12.1642 10.3573 12.1163 10.3144 12.0828 10.2611C12.0493 10.2077 12.0314 10.146 12.0313 10.0831Z" fill="#FCF9F7"/>
<path d="M18.0888 10.0831V3.56284C18.0878 3.50191 18.1031 3.44182 18.1331 3.38877C18.1632 3.33572 18.2069 3.29164 18.2597 3.26109C18.3802 3.18553 18.5204 3.14711 18.6627 3.15064H22.2477C22.3096 3.14842 22.371 3.16314 22.4251 3.1932C22.4793 3.22327 22.5242 3.26755 22.5549 3.32124C22.627 3.44001 22.6637 3.57684 22.6606 3.71569C22.6649 3.86093 22.6264 4.00423 22.55 4.12789C22.5194 4.18062 22.4752 4.22423 22.4221 4.25422C22.3689 4.28422 22.3087 4.29949 22.2477 4.29848H19.3977V6.30622H20.9279C20.9874 6.30455 21.0463 6.31796 21.0992 6.34521C21.152 6.37246 21.1971 6.41265 21.2302 6.46203C21.3051 6.5695 21.3438 6.69797 21.3408 6.82887C21.342 6.95264 21.3051 7.07378 21.2351 7.17598C21.2019 7.22636 21.1561 7.26722 21.1022 7.29454C21.0483 7.32187 20.9883 7.3347 20.9279 7.33178H19.3977V9.35234H22.2477C22.3087 9.35143 22.3689 9.36676 22.422 9.39674C22.4751 9.42672 22.5193 9.47028 22.55 9.52294C22.6264 9.6466 22.6649 9.7899 22.6606 9.93514C22.6637 10.074 22.627 10.2108 22.5549 10.3296C22.5242 10.3834 22.4794 10.4277 22.4252 10.4578C22.371 10.4879 22.3096 10.5025 22.2477 10.5002H18.6627C18.5204 10.5037 18.3802 10.4653 18.2597 10.3897C18.2061 10.3588 18.1619 10.3139 18.1319 10.2599C18.1018 10.2059 18.0869 10.1448 18.0888 10.0831Z" fill="#FCF9F7"/>
<path d="M23.2662 3.67329C23.2735 3.59319 23.3027 3.51664 23.3506 3.45197C23.3985 3.38729 23.4633 3.33696 23.5378 3.30646C23.7086 3.20541 23.9033 3.15163 24.1019 3.15065C24.3436 3.15065 24.4878 3.23776 24.5346 3.41197L26.126 8.86028L26.9815 5.36251C27.0414 5.12124 27.2561 5.00061 27.6256 5.00061C27.9951 5.00061 28.2065 5.12124 28.2598 5.36251L29.1153 8.86028L30.7057 3.41197C30.7525 3.23776 30.8971 3.15065 31.1394 3.15065C31.338 3.15168 31.5327 3.20546 31.7035 3.30646C31.778 3.33696 31.8428 3.38729 31.8907 3.45197C31.9386 3.51664 31.9678 3.59319 31.9751 3.67329C31.975 3.71419 31.9684 3.7548 31.9554 3.7936L29.9609 10.1156C29.8601 10.4108 29.575 10.5584 29.1054 10.5584C28.9179 10.5614 28.7321 10.522 28.5621 10.443C28.4907 10.4153 28.4268 10.3713 28.3754 10.3147C28.3239 10.258 28.2864 10.1902 28.2657 10.1166L27.6217 7.40279L26.9667 10.1166C26.946 10.1902 26.9085 10.258 26.8571 10.3147C26.8056 10.3713 26.7417 10.4153 26.6703 10.443C26.5003 10.522 26.3145 10.5614 26.127 10.5584C25.9359 10.5622 25.7464 10.5228 25.5728 10.443C25.5015 10.4142 25.4373 10.37 25.3851 10.3135C25.3328 10.2571 25.2937 10.1899 25.2705 10.1166L23.277 3.79459C23.2668 3.75502 23.2631 3.71404 23.2662 3.67329Z" fill="#FCF9F7"/>
<path d="M32.2439 9.34149C32.2498 9.17071 32.3116 9.00655 32.4197 8.87407C32.4615 8.80572 32.5193 8.74854 32.5881 8.70747C32.657 8.66641 32.7348 8.6427 32.8149 8.63839C32.9245 8.64751 33.0284 8.69139 33.1113 8.76363C33.2242 8.84893 33.3318 8.94114 33.4333 9.03974C33.565 9.15814 33.7169 9.25199 33.8818 9.31684C34.0856 9.40219 34.3048 9.44482 34.5259 9.44208C34.8106 9.45268 35.0917 9.37556 35.331 9.22118C35.4364 9.14924 35.5214 9.05135 35.5778 8.93699C35.6343 8.82262 35.6602 8.69566 35.653 8.56838C35.6555 8.37476 35.5936 8.18579 35.4772 8.03094C35.3536 7.86714 35.1954 7.73247 35.0139 7.63649C34.8229 7.53262 34.6131 7.43204 34.3846 7.33474C34.1561 7.23744 33.9256 7.12864 33.6931 7.00834C33.4694 6.89273 33.257 6.75637 33.0589 6.60107C32.8589 6.43928 32.7001 6.23246 32.5956 5.99757C32.4743 5.7277 32.4142 5.4344 32.4197 5.13865C32.4129 4.80795 32.4872 4.48059 32.6361 4.18508C32.7681 3.92305 32.968 3.70105 33.215 3.54213C33.4542 3.39021 33.7159 3.27674 33.9904 3.20586C34.2768 3.13295 34.5712 3.09683 34.8667 3.09838C35.052 3.09916 35.2371 3.11135 35.4209 3.13486C35.6296 3.16158 35.8364 3.2011 36.0403 3.2532C36.2355 3.29696 36.418 3.38503 36.5737 3.51058C36.6372 3.55937 36.6888 3.6219 36.7245 3.69347C36.7603 3.76504 36.7793 3.84378 36.7802 3.92376C36.7759 4.08802 36.7275 4.24812 36.6399 4.38723C36.6047 4.45853 36.5502 4.51862 36.4827 4.56078C36.4152 4.60293 36.3372 4.62547 36.2576 4.62587C36.0848 4.5855 35.9185 4.5211 35.7637 4.43457C35.4832 4.30455 35.1769 4.23917 34.8677 4.24326C34.573 4.22555 34.2799 4.29741 34.027 4.44936C33.9401 4.50774 33.8681 4.58548 33.8166 4.67645C33.765 4.76742 33.7354 4.86911 33.73 4.97349C33.7247 5.07786 33.7437 5.18205 33.7857 5.27781C33.8276 5.37357 33.8913 5.45827 33.9717 5.52522C34.1478 5.67841 34.3507 5.79777 34.5703 5.87726C34.8081 5.96732 35.0666 6.08138 35.3458 6.21944C35.6141 6.35106 35.8732 6.50063 36.1213 6.66714C36.3758 6.84664 36.5815 7.08658 36.7199 7.36531C36.8872 7.69711 36.9703 8.06486 36.9619 8.43624C36.9797 8.73384 36.9296 9.03158 36.8155 9.30708C36.7014 9.58258 36.5262 9.82867 36.303 10.0268C35.8114 10.4177 35.1942 10.6168 34.5664 10.587C33.9941 10.6023 33.428 10.4662 32.9255 10.1925C32.4705 9.93415 32.2432 9.65048 32.2439 9.34149Z" fill="#FCF9F7"/>
</g>
<defs>
<clipPath id="clip0_133_217">
<rect width="42" height="39" fill="white"/>
</clipPath>
</defs>
</svg>

<svg width="42" height="39" fill="none" xmlns="http://www.w3.org/2000/svg"><g clip-path="url(#a)" fill="#FCF9F7"><path d="M39.88 0H9.151a2.13 2.13 0 0 0-2.12 2.127v3.23H2.12A2.13 2.13 0 0 0 0 7.484v27.371c0 1.09.43 2.137 1.198 2.912a4.153 4.153 0 0 0 2.904 1.23h21.792a.619.619 0 0 0 .437-1.054.62.62 0 0 0-.437-.18H7.07a4.138 4.138 0 0 0 1.192-2.91V20.42a.614.614 0 0 0-1.05-.435.614.614 0 0 0-.18.435v14.436c.001.767-.3 1.504-.84 2.049a2.913 2.913 0 0 1-2.043.863h-.018a2.914 2.914 0 0 1-2.052-.856 2.903 2.903 0 0 1-.848-2.053V7.484a.886.886 0 0 1 .889-.893h4.912v11.523a.614.614 0 0 0 1.05.434.614.614 0 0 0 .18-.434V2.127a.886.886 0 0 1 .89-.892h30.727a.89.89 0 0 1 .89.892v32.728a2.913 2.913 0 0 1-2.9 2.913h-9.681a.62.62 0 0 0-.619.618.617.617 0 0 0 .619.617h9.68a4.153 4.153 0 0 0 2.923-1.22A4.138 4.138 0 0 0 42 34.862V2.127A2.122 2.122 0 0 0 39.88 0Z"/><path d="M13.463 24.633h8.482a1.466 1.466 0 0 0 1.463-1.46v-8.467a1.46 1.46 0 0 0-1.463-1.46h-8.482a1.466 1.466 0 0 0-1.462 1.46v8.467a1.46 1.46 0 0 0 1.463 1.46Zm-.226-9.927a.225.225 0 0 1 .226-.226h8.482a.227.227 0 0 1 .227.226v8.467a.226.226 0 0 1-.227.226h-8.482a.227.227 0 0 1-.226-.226v-8.467Zm12.286-.226h11.478a.619.619 0 0 0 .438-1.055.619.619 0 0 0-.438-.18H25.523a.619.619 0 1 0 0 1.234Zm0 5.076h11.478a.619.619 0 0 0 .438-1.054.619.619 0 0 0-.438-.18H25.523a.619.619 0 1 0 0 1.234Zm0 5.077h11.478a.62.62 0 0 0 .619-.617.617.617 0 0 0-.619-.617H25.523a.619.619 0 0 0-.437 1.053.618.618 0 0 0 .437.181ZM12.486 29.71H37a.62.62 0 0 0 .619-.617.617.617 0 0 0-.619-.618H12.486a.62.62 0 0 0-.619.617.617.617 0 0 0 .619.618Zm0 5.076H37a.619.619 0 0 0 .438-1.053.619.619 0 0 0-.438-.181H12.486a.619.619 0 0 0-.438 1.053.62.62 0 0 0 .438.181Zm-.455-24.703v-6.52a.332.332 0 0 1 .192-.307.946.946 0 0 1 .463-.105.98.98 0 0 1 .554.13c.18.156.325.348.423.564l1.943 3.747V3.55a.323.323 0 0 1 .192-.302 1.116 1.116 0 0 1 .927 0 .324.324 0 0 1 .191.302v6.534a.336.336 0 0 1-.197.302.916.916 0 0 1-.459.11.791.791 0 0 1-.755-.412L13.34 6.04v4.043a.335.335 0 0 1-.197.302 1.014 1.014 0 0 1-.922 0 .336.336 0 0 1-.19-.302Zm6.058 0v-6.52a.342.342 0 0 1 .17-.302.725.725 0 0 1 .404-.11h3.585a.34.34 0 0 1 .307.17.729.729 0 0 1 .106.395.742.742 0 0 1-.111.412.343.343 0 0 1-.302.17h-2.85v2.008h1.53a.352.352 0 0 1 .302.156.617.617 0 0 1 .11.367.604.604 0 0 1-.105.347.347.347 0 0 1-.307.156h-1.53v2.02h2.85a.344.344 0 0 1 .302.17.742.742 0 0 1 .11.413.729.729 0 0 1-.105.395.338.338 0 0 1-.307.17h-3.585a.725.725 0 0 1-.403-.11.341.341 0 0 1-.171-.307Zm5.177-6.41a.439.439 0 0 1 .272-.367c.17-.1.365-.154.564-.155.242 0 .386.087.433.261l1.591 5.448.855-3.497c.06-.242.275-.362.645-.362s.58.12.634.362l.855 3.497 1.59-5.448c.048-.174.192-.261.434-.261.199 0 .394.054.564.155a.44.44 0 0 1 .272.367.373.373 0 0 1-.02.12l-1.994 6.323c-.1.295-.386.442-.856.442a1.242 1.242 0 0 1-.543-.115.493.493 0 0 1-.296-.326l-.644-2.714-.655 2.714a.494.494 0 0 1-.297.326c-.17.079-.356.118-.543.115a1.267 1.267 0 0 1-.554-.115.521.521 0 0 1-.303-.326l-1.993-6.322a.373.373 0 0 1-.01-.122Zm8.978 5.668a.782.782 0 0 1 .176-.467.495.495 0 0 1 .395-.236c.11.01.213.053.296.126.113.085.22.177.322.276.132.118.284.212.449.277.204.085.423.128.644.125.285.01.566-.066.805-.22a.74.74 0 0 0 .322-.654.876.876 0 0 0-.176-.537 1.4 1.4 0 0 0-.463-.395 7.33 7.33 0 0 0-.63-.301 10.21 10.21 0 0 1-.69-.327 4.018 4.018 0 0 1-.635-.407 1.627 1.627 0 0 1-.463-.603 2.004 2.004 0 0 1-.176-.86c-.007-.33.067-.657.216-.953.132-.262.332-.484.579-.643.24-.152.5-.265.775-.336a3.46 3.46 0 0 1 .877-.108c.185.001.37.013.554.037.209.027.415.066.62.118.195.044.377.132.533.258a.528.528 0 0 1 .206.413.915.915 0 0 1-.14.463.428.428 0 0 1-.382.239 1.897 1.897 0 0 1-.494-.191 2.066 2.066 0 0 0-.896-.192 1.462 1.462 0 0 0-.841.206.673.673 0 0 0-.055 1.076c.176.153.379.273.598.352.238.09.497.204.776.342.268.132.527.282.775.448.255.18.46.42.599.698.167.332.25.7.242 1.071a1.969 1.969 0 0 1-.659 1.59 2.593 2.593 0 0 1-1.737.561 3.249 3.249 0 0 1-1.64-.394c-.456-.259-.683-.543-.682-.852Z"/></g><defs><clipPath id="a"><path fill="#fff" d="M0 0h42v39H0z"/></clipPath></defs></svg>
